docs/img/cart.svg

<svg width="24" height="24" viewBox="0 0 24 24" fill="none" xmlns="http://www.w3.org/2000/svg">
<path d="M17.8571 4.8V2.4H8.33333V4.8H17.8571ZM7.14286 19.2C6.51139 19.2 5.90578 19.4529 5.45927 19.9029C5.01275 20.353 4.7619 20.9635 4.7619 21.6C4.7619 22.2365 5.01275 22.847 5.45927 23.2971C5.90578 23.7471 6.51139 24 7.14286 24C7.77432 24 8.37993 23.7471 8.82644 23.2971C9.27296 22.847 9.52381 22.2365 9.52381 21.6C9.52381 20.9635 9.27296 20.353 8.82644 19.9029C8.37993 19.4529 7.77432 19.2 7.14286 19.2ZM19.0476 19.2C18.4162 19.2 17.8105 19.4529 17.364 19.9029C16.9175 20.353 16.6667 20.9635 16.6667 21.6C16.6667 22.2365 16.9175 22.847 17.364 23.2971C17.8105 23.7471 18.4162 24 19.0476 24C19.6791 24 20.2847 23.7471 20.7312 23.2971C21.1777 22.847 21.4286 22.2365 21.4286 21.6C21.4286 20.9635 21.1777 20.353 20.7312 19.9029C20.2847 19.4529 19.6791 19.2 19.0476 19.2ZM7.34524 15.3L7.38095 15.156L8.45238 13.2H17.3214C18.2143 13.2 19 12.708 19.4048 11.964L24 3.552L21.9286 2.4H21.9167L20.6071 4.8L17.3214 10.8H8.96428L8.80952 10.476L6.14286 4.8L5.0119 2.4L3.89286 0H0V2.4H2.38095L6.66667 11.508L5.05952 14.448C4.86905 14.784 4.7619 15.18 4.7619 15.6C4.7619 16.2365 5.01275 16.847 5.45927 17.2971C5.90578 17.7471 6.51139 18 7.14286 18H21.4286V15.6H7.64286C7.4881 15.6 7.34524 15.468 7.34524 15.3Z" fill="#222222"/>
</svg>

<svg width="24" height="24" fill="none" xmlns="http://www.w3.org/2000/svg"><path d="M17.857 4.8V2.4H8.333v2.4h9.524ZM7.143 19.2c-.632 0-1.237.253-1.684.703a2.41 2.41 0 0 0 0 3.394 2.372 2.372 0 0 0 3.367 0 2.41 2.41 0 0 0 0-3.394 2.372 2.372 0 0 0-1.683-.703Zm11.905 0c-.632 0-1.237.253-1.684.703a2.41 2.41 0 0 0 0 3.394 2.372 2.372 0 0 0 3.367 0 2.41 2.41 0 0 0 0-3.394 2.372 2.372 0 0 0-1.683-.703ZM7.345 15.3l.036-.144L8.452 13.2h8.87c.892 0 1.678-.492 2.083-1.236L24 3.552 21.929 2.4h-.012l-1.31 2.4-3.286 6H8.964l-.154-.324L6.143 4.8 5.012 2.4 3.892 0H0v2.4h2.381l4.286 9.108-1.607 2.94a2.34 2.34 0 0 0-.298 1.152c0 .636.25 1.247.697 1.697.447.45 1.052.703 1.684.703h14.286v-2.4H7.643a.304.304 0 0 1-.298-.3Z" fill="#222"/></svg>
